outputs/icons/image/image_library_sharp.svg

<svg xmlns="http://www.w3.org/2000/svg" width="1200" height="1200" fill="none"><g clip-path="url(#a)"><path fill="#000" d="M1100 900V100H300v800zM550 600l101.5 135.5L800 550l200 250H400zM100 300v800h800v-100H200V300z"/></g><defs><clipPath id="a"><path fill="#fff" d="M0 0h1200v1200H0z"/></clipPath></defs></svg>

<svg width="1200" height="1200" viewBox="0 0 1200 1200" fill="none" xmlns="http://www.w3.org/2000/svg"><g clip-path="url(#clip0_124_543)"><path d="M1100 900V100H300V900H1100ZM550 600L651.5 735.5L800 550L1000 800H400L550 600ZM100 300V1100H900V1000H200V300H100Z" fill="black"/></g><defs><clipPath id="clip0_124_543"><path width="24" fill="white" d="M0 0H1200V1200H0V0z"/></clipPath></defs></svg>
